Ndef(("stutter"++0).asSymbol).set(\rate, 0.26, \switch, 1, \amp, 0.85);
Ndef(("stutter"++1).asSymbol).set(\rate, 0.26, \switch, 1, \amp, 0.85);
Ndef(("stutter"++2).asSymbol).set(\rate, 0.26, \switch, 1, \amp, 0.85);

Ndef(("stutter"++0).asSymbol).set(\rate, 0.26 * 2.5, \switch, 0, \amp, 0.85);
Ndef(("stutter"++1).asSymbol).set(\rate, 0.26 * 2.5, \switch, 0, \amp, 0.85);
Ndef(("stutter"++2).asSymbol).set(\rate, 0.26 * 2.5, \switch, 0, \amp, 0.85);

Ndef(("stutter"++0).asSymbol).set(\rate, 0.26, \switch, 1, \amp, 0.75);
Ndef(("stutter"++0).asSymbol).set(\rate, 0.26 * 2.5, \switch, 0, \amp, 0.85);